X:80
T:Johnnie M'Gill
C:arr. Carlo Minasi
M:6/8
L:1/8
B:Chappell's One Hundred Scotch Melodies
B:Arranged for the Concertina by Carlo Minasi
Q:"Allegro  "3/8=100
Z:Peter Dunk 2012
K:Dm
!mf!f|LcAA AGF|LcAA A2 f|LcAA [A^C]GA|L[FD]DD D2 f|
LcAA AGF|LcAA AGF|L[GDB,]FG [A^C]GA|L[FD]DD D2||
c|Lfef gfg|L[afc].f.d cAF|\
L[fcA].e.f L[gec].f.g|Lafd d2 (f/g/)|
L[afc]fa [g^cA]eg|L[fd]de ([fdB]ef)|\
L[cA]AA [A^C]GA|L[FD]DD D2||

